X: 305758
T: COTILLION No. 21. WOONSOCKET SETT tune 2
T: The Banks (and Braes) o' (Bonnie) Doon
T: The Caledonian Hunt's Delight
%R: jig
B: Elias Howe "The Musician's Companion" Part 3 1844 p.124 #2
S: http://imslp.org/wiki/The_Musician's_Companion_(Howe,_Elias)
Z: 2015 John Chambers <jc:trillian.mit.edu>
M: 6/8
L: 1/8
K: C
% - - - - - - - - - - - - - - - - - - - - - - - - - - - - -
G |\
c3 d3 | e>ge d>cd | e>dc cAG | Gce d3 |\
c3 d3 | e>ge dcd | edc cAG | GAB c2 H|]
e/f/ |\
g2a g>ec | g2a f>ec | gec gec | gfe e2d |\
c3 d3 | e>ge d>cd | e>dc c>AG | GAB "^D.C."c2 |]
% - - - - - - - - - - Dance description - - - - - - - - - -
%%begintext align
%% Right and left 4,
%% balance 4,
%% ladies chain,
%% promenade 4.
%% Sides the same.
%%endtext
% - - - - - - - - - - - - - - - - - - - - - - - - - - - - -
%%sep 1 1 300


